X:706
T:Roll Her On the Hill
B:Kerr's Merry Melodies Book 1
Z:Nigel Gatherer
M:4/4
L:1/8
K:D
A2 AF A2 AF | B2 BA BcdB | A2 AF A2 AF | BAFD E2 D2 :|
d2 df edcB  | ABcd  efge | d2 df edcB  | BAFD E2 D2  |
d2 df edcB  | ABcd  efge | afdf  edcB  | AFDF E2 D2 ||
<end>
<start>
